epam-assets/icon-sources/18/action-job_function-outline.svg

<svg width="18" height="18" viewBox="0 0 18 18" fill="none" xmlns="http://www.w3.org/2000/svg">
<g id="18/action-job_function-outline">
<path id="icon" fill-rule="evenodd" clip-rule="evenodd" d="M12 4.5H15C15.4125 4.5 15.7657 4.647 16.0597 4.941C16.3532 5.2345 16.5 5.5875 16.5 6V14.25C16.5 14.6625 16.3532 15.0157 16.0597 15.3097C15.7657 15.6032 15.4125 15.75 15 15.75H3C2.5875 15.75 2.2345 15.6032 1.941 15.3097C1.647 15.0157 1.5 14.6625 1.5 14.25V6C1.5 5.5875 1.647 5.2345 1.941 4.941C2.2345 4.647 2.5875 4.5 3 4.5H6V3C6 2.5875 6.147 2.23425 6.441 1.94025C6.7345 1.64675 7.0875 1.5 7.5 1.5H10.5C10.9125 1.5 11.2657 1.64675 11.5597 1.94025C11.8533 2.23425 12 2.5875 12 3V4.5ZM7.5 3V4.5H10.5V3H7.5ZM3.00076 6.00256L3.00256 6.00076L3.00332 6H14.9974L14.9991 6.00166L15 6.00257V14.2482L14.9991 14.2491L14.9982 14.25H3.00257L3.00166 14.2491L3 14.2474V6.00332L3.00076 6.00256Z" fill="#6C6F80"/>
</g>
</svg>

<svg xmlns="http://www.w3.org/2000/svg" width="18" height="18" fill="none" viewBox="0 0 18 18">
  <path fill="#6C6F80" fill-rule="evenodd" d="M12 4.5h3c.412 0 .766.147 1.06.441.293.293.44.647.44 1.059v8.25c0 .412-.147.766-.44 1.06-.294.293-.647.44-1.06.44H3c-.413 0-.765-.147-1.059-.44a1.445 1.445 0 0 1-.441-1.06V6c0-.412.147-.766.441-1.059A1.443 1.443 0 0 1 3 4.5h3V3c0-.413.147-.766.441-1.06.293-.293.647-.44 1.059-.44h3c.412 0 .766.147 1.06.44.293.294.44.647.44 1.06v1.5ZM7.5 3v1.5h3V3h-3ZM3 6.003 3.004 6h11.994l.002.002v8.247l-.002.001H3.002L3 14.246V6.003Z" clip-rule="evenodd"/>
</svg>
